X: 78
T: No_80_Comanche_Dance_Song_(a).krn
N: Derived from No_80_Comanche_Dance_Song_(a).krn
%%abc-version 2.0
%%abcx-abcm2ps-target-version 5.9.1 (29 Sep 2008)
%%abc-creator hum2abc beta
%%abcx-conversion-date 2019/03/15 08:25:36
%%humdrum-veritas 4107425445
%%humdrum-veritas-data 3886290468
%%linebreak <none>
%%barnumbers 0
L: 1/8
M: 2/4
K: G clef=bass
[K:clef=bass][M:2/4]B,4 [I:setbarnb 2]| 
(A,3/E,/) E,3/E,/ | 
(G,3/E,/) (E,3/^D,/) | 
E,3D, | 
[M:3/4]E,2E,2E, z | 
[M:2/4]B,4 | 
(A,3/E,/) E,3/E,/ | 
G,3/E,/ E,3/^D,/ | 
E,3D, | 
[M:3/4]E,2E,2E, z | 
A,3/A,/ A, z A,3/A,/ | 
[M:2/4](B,2A,2) | 
G,2E, z | 
B,2A,A, | 
A,E,/E,/ G,/(G,/E,) | 
[M:3/4]A,2A,2B,A, | 
[M:2/4]G,2E,^D, | 
E,2E,2 | 
E,2E, z | 
[M:3/4]E,2E,2E,2 | 
[M:2/4]E,2E,2 | 
[M:3/4]G,2G,2G,/ z/ E, | 
[M:2/4]G,7/E,/ | 
G,E, E,D, | 
[M:3/4]E,2E,2E, z | 
G,G, G,/ z/ E, | 
G,7/E,/ | 
G,E, E,^D, | 
[M:3/4]E,2E,2E, z :|]  
[M:2/4]E,E, E, z |]  



